X:179 
T:Reens Polka*, The 
F:file ID: cre.4/179reens
S:BPC < Barrett < Collins
B:CRE4.076: gan ainm [BB setting]
L:1/8
M:2/4
Q:100
R:polka % A-B-A
K:D
A|d>e f/e/d/c/|e/d/c/B/ Ag|a/g/f/g/ eA|a/g/f/g/ eA|
d>e f/e/d/c/|e/d/c/B/ Ag|a/g/f/g/ eA|d2 d :|
A|f>e f/e/f/g/|ag gf|g>f g/f/g/a/|ba ge|
d>e f/e/f/g/|af gf|g/b/a/g/ f/e/d/c/|d/f/a/g/ f/e/d/c/ ||
P:return to first part
d>e f/e/d/c/|e/d/c/B/ Ag|a/g/f/g/ eA|a/g/f/g/ eA|
d>e f/e/d/c/|e/d/c/B/ Ag|a/g/f/g/ eA|d2 d2- |d4||

%%%

